assets/Heart hands/Medium-Dark/Flat/heart_hands_flat_medium-dark.svg

<svg width="32" height="32" viewBox="0 0 32 32" fill="none" xmlns="http://www.w3.org/2000/svg">
<path d="M5 17.0001C5.16667 15.3334 6 12.5997 8.5 11.1C12.7229 8.56656 16 11.0002 16 12.5001L5 17.0001Z" fill="#8B5C56"/>
<path d="M16 12.5001C16 11.0002 19.2771 8.56656 23.5 11.1C26 12.5997 26.8333 15.3334 27 17.0001L16 12.5001Z" fill="#8B5C56"/>
<path fill-rule="evenodd" clip-rule="evenodd" d="M4 29H7.99999C9.06143 29 9.76234 28.7296 10.3706 28.4949C11.0904 28.2173 11.6804 27.9896 12.5845 28.3193C12.7159 28.3672 13.2541 27.8662 13.7072 27.9526C14.4304 28.0905 14.1936 28.7903 14.6138 29.6055C14.9508 29.8488 15.2997 30 16 30C16.9126 30 17.2283 29.7432 17.6988 29.3605C18.0017 29.1141 18.3686 28.8157 19 28.4999C20.1508 27.9245 20.805 28.1769 21.6294 28.4949C22.2376 28.7296 22.9385 29 24 29H28C29.1045 29 30 28.1046 30 27V23C30 21 30 19.5 27 16.9999C26.3523 16.4601 25.7468 15.7775 25.1256 15.0771C23.721 13.4936 22.2359 11.8194 20 11.4999C17.3345 11.1192 16 12.2818 16 12.2818C16 12.2818 14.6655 11.1192 12 11.4999C9.76406 11.8194 8.27899 13.4936 6.8744 15.0771C6.25317 15.7775 5.64769 16.4601 4.99994 16.9999C2 19.5 2 21 2 23V27C2 28.1046 2.89543 29 4 29ZM18.0538 23.2077C18.6821 22.8163 19.4617 22.3307 20.5 21.5C23.3154 19.2476 21.5 15.5 19.5 15.5C18.4282 15.5 17.9308 15.7872 17.4691 16.0538C17.0692 16.2846 16.6961 16.5 16 16.5C15.3038 16.5 14.9308 16.2846 14.5309 16.0538C14.1996 15.6378 13.4929 15.3047 13.4929 15.3047C13.4929 15.3047 12.9579 15.2239 12.4999 15.5C10.5 15.5 8.49997 19 11.5 21.5C12.6009 22.4174 13.4109 22.9147 14.0581 23.312C14.8807 23.817 15.4403 24.1605 16 25C16.5847 24.123 17.1693 23.7587 18.0538 23.2077Z" fill="#966661"/>
<path d="M12.5 15.5001C12.8913 12.7612 14.8135 12.1656 15.631 12.0361C15.8335 12.1503 15.9527 12.2431 15.9885 12.2723C14.9869 12.6174 13.2885 14.6478 14.5 16.0001C14.5213 16.0239 14.5415 16.0475 14.5607 16.0711L14.5309 16.0539C14.0692 15.7873 13.5718 15.5001 12.5 15.5001Z" fill="#764C49"/>
<path d="M14.4263 27.6494C14.4412 28.6354 14.5338 29.2567 14.6286 29.616C14.5214 29.5396 14.4159 29.4538 14.3012 29.3604C13.9984 29.1141 13.6314 28.8156 13 28.4999C12.8572 28.4285 12.7221 28.3699 12.5933 28.3225C12.7294 26.177 14.2044 24.6801 15.7179 24.6172C15.8125 24.7327 15.9059 24.8589 15.9993 24.9989L15.9993 25.0072C15.4453 25.2387 14.4021 26.0539 14.4263 27.6494Z" fill="#764C49"/>
</svg>

<svg xmlns="http://www.w3.org/2000/svg" width="32" height="32" fill="none"><path fill="#8B5C56" d="M5 17c.167-1.667 1-4.4 3.5-5.9 4.223-2.533 7.5-.1 7.5 1.4L5 17ZM16 12.5c0-1.5 3.277-3.933 7.5-1.4 2.5 1.5 3.333 4.233 3.5 5.9l-11-4.5Z"/><path fill="#966661" fill-rule="evenodd" d="M4 29h4c1.061 0 1.762-.27 2.37-.505.72-.278 1.31-.505 2.215-.176.13.048.67-.453 1.122-.366.723.137.487.837.907 1.652.337.244.686.395 1.386.395.913 0 1.228-.257 1.699-.64.303-.246.67-.544 1.301-.86 1.15-.576 1.805-.323 2.63-.005.608.235 1.309.505 2.37.505h4a2 2 0 0 0 2-2v-4c0-2 0-3.5-3-6-.648-.54-1.253-1.223-1.874-1.923C23.72 13.494 22.236 11.82 20 11.5c-2.666-.38-4 .782-4 .782s-1.335-1.163-4-.782c-2.236.32-3.721 1.994-5.126 3.577-.62.7-1.226 1.383-1.874 1.923-3 2.5-3 4-3 6v4a2 2 0 0 0 2 2Zm14.054-5.792c.628-.392 1.408-.877 2.446-1.708 2.815-2.252 1-6-1-6-1.072 0-1.57.287-2.03.554-.4.23-.774.446-1.47.446s-1.07-.215-1.47-.446c-.33-.416-1.037-.75-1.037-.75s-.535-.08-.993.196c-2 0-4 3.5-1 6 1.1.917 1.91 1.415 2.558 1.812.823.505 1.382.848 1.942 1.688.585-.877 1.17-1.241 2.054-1.792Z" clip-rule="evenodd"/><path fill="#764C49" d="M12.5 15.5c.391-2.739 2.313-3.334 3.131-3.464.203.114.322.207.357.236-1.001.345-2.7 2.376-1.488 3.728l.06.071-.03-.017c-.46-.267-.958-.554-2.03-.554ZM14.426 27.65c.015.985.108 1.607.203 1.966a6.542 6.542 0 0 1-.328-.256A6.451 6.451 0 0 0 13 28.5a3.999 3.999 0 0 0-.407-.177c.136-2.146 1.611-3.643 3.125-3.706.095.116.188.242.281.382v.008c-.554.232-1.597 1.047-1.573 2.642Z"/></svg>
